!!!OTL: Das Ewige.
!!!OTL-incipit: HEILGE WAHRHEIT, WER VERMAG DEINE GLUTH ZU DAEMPFEN
!!!ARE: Europa, Mitteleuropa, Deutschland
!!!SCT: Z1121
!!!TXL: @@DE
!!!YEM: Copyright 1995, estate of Helmut Schaffrath.
**kern	**text
*ICvox	*
*M4/4	*
*met(c)	*
*k[]	*
*a:	*
=1	=1
!LO:TX:a:t=(Lied der Schüler des Huß aus den Glaubenskriegen.)	!
{4ee/	Heil'ge
4ee/	.
4ee/	Wahrheit,
4ee/	.
=2	=2
4dd/	wer
4cc/	ver-
2b;	-mag
=3	=3
4cc/	dei-
4dd/	-ne
4ee/	Gluth
4ee/	ʒu
=4	=4
(>4dd/	däm-
4cc/)	.
2b/;}	-pfen?
=5	=5
{4a	Wer
4b/	will
4cc/	ge-
4a	-gen
=6	=6
4a	dei-
4f	-ne
2e;	Kraft
=7	=7
4a	ſte-
4a	-hen
4a	noch
4a	und
=8	=8
4g	käm-
4f	.
2e;}	-pfen?
=9	=9
{4a	Nah'n
4g#	ſie
4a	ʒahl-
4a	-los
=10	=10
4cc/	auch
4b/	wie
2a;	Sand,
=11	=11
4cc/	grim-
4dd/	-me
4ee/	Waf-
4ee/	-fen
=12	=12
4dd/	in
4cc/	der
2b/;}	Hand,
=13	=13
{4a	wü-
4b/	-then
4cc/	ſie
4a	mit
=14	=14
4a	Mord
4f	und
2e;	Brand
=15	=15
4a	in
4a	des
4a	Wahnes
4a	.
=16	=16
(>4g	Kräm-
4f)	.
2e;}	-pfen!
==	==
!!!AGN: religioeses Lied
!!!ONB: ESAC (Essen Associative Code) Database: ZUCCAL
!!!AMT: simple quadruple
!!!AIN: vox
!!!EED: Helmut Schaffrath
!!!EEV: 1.0
!!!RDF**kern: >= above
!!!GTL: III. Haus- Andacht.
!!!URL-scan: https://www.digitale-sammlungen.de/de/view/bsb11160573?page=263
!!!ENC: Anna Maria Matuszewska
!!!EEV: 2025/02/04
*-	*-
